svgs/pluvia.svg

<svg width="192" height="192" viewBox="0 0 192 192" fill="none" xmlns="http://www.w3.org/2000/svg">
<path d="M118.638 134.371L98.593 167.995" stroke="black" stroke-width="8" stroke-linecap="round" stroke-linejoin="round"/>
<path d="M56.5636 134.371L36.5187 167.995" stroke="black" stroke-width="8" stroke-linecap="round" stroke-linejoin="round"/>
<path d="M77.2551 134.371L57.2102 167.995" stroke="black" stroke-width="8" stroke-linecap="round" stroke-linejoin="round"/>
<path d="M97.947 134.371L77.9018 167.995" stroke="black" stroke-width="8" stroke-linecap="round" stroke-linejoin="round"/>
<path d="M115.405 54.8373C115.405 39.9974 127.479 26.5 145.796 26.5C161.973 26.5 173.666 38.8404 172.971 54.8373C172.324 69.7094 162.972 83.9348 145.796 83.9348" stroke="black" stroke-width="6" stroke-linecap="round" stroke-linejoin="round"/>
<path d="M127.282 70.3009C120.239 45.258 73.2842 37.4322 58.4151 65.6053C20.0683 56.9968 5.19909 103.952 42.7634 118.821H127.282C155.456 105.518 153.108 78.1267 127.282 70.3009Z" stroke="black" stroke-width="10" stroke-linecap="round" stroke-linejoin="round"/>
</svg>

<svg width="192" height="192" viewBox="0 0 192 192" fill="none" xmlns="http://www.w3.org/2000/svg"><path d="m118.638 134.371-20.045 33.624M56.564 134.371l-20.045 33.624M77.255 134.371 57.21 167.995M97.947 134.371l-20.045 33.624" stroke="#000" stroke-width="8" stroke-linecap="round" stroke-linejoin="round"/><path d="M115.405 54.837c0-14.84 12.074-28.337 30.391-28.337 16.177 0 27.87 12.34 27.175 28.337-.647 14.872-9.999 29.098-27.175 29.098" stroke="#000" stroke-width="6" stroke-linecap="round" stroke-linejoin="round"/><path d="M127.282 70.3c-7.043-25.042-53.998-32.868-68.867-4.695-38.347-8.608-53.216 38.347-15.652 53.216h84.519c28.174-13.303 25.826-40.694 0-48.52Z" stroke="#000" stroke-width="10" stroke-linecap="round" stroke-linejoin="round"/></svg>
